X:1
T:Lovely Willie
M:9/8
L:1/4
K:A
 E G/2| A3/2 G3/2 F3/2| E- D/2 C3/2 C E/2| D3/2 C3/2 B,- G,/2| A,2 z A B/2|\
 c3/2 A3/2 d c/2| B- G/2 E3/2 E- G/2| A3/2 A3/2 B- G/2| A2 z A B/2|\
 c3/2 A3/2 d- c/2| B- G/2 E3/2 E- G/2| A3/2 A3/2 B G/2| A2 z E A/2|\
 A3/2 G3/2 F3/2| E- D/2 C3/2 C- E/2| D3/2 C3/2 B,- G,/2| A,3||
